material/.icons/material/door-closed-lock.svg

<svg xmlns="http://www.w3.org/2000/svg" viewBox="0 0 24 24"><path d="M16 11h2v2h-2v-2m-4-8h7a2 2 0 012 2v14h1v2H2v-2h8V5a2 2 0 012-2m0 2v14h7V5M6.2 5H2.8v-.5a1.7 1.7 0 013.4 0M7 5v-.5a2.5 2.5 0 00-5 0V5a1 1 0 00-1 1v4a1 1 0 001 1h5a1 1 0 001-1V6a1 1 0 00-1-1"/></svg>

<?xml version="1.0" encoding="UTF-8"?><!DOCTYPE svg PUBLIC "-//W3C//DTD SVG 1.1//EN" "http://www.w3.org/Graphics/SVG/1.1/DTD/svg11.dtd"><svg xmlns="http://www.w3.org/2000/svg" xmlns:xlink="http://www.w3.org/1999/xlink" version="1.1" id="mdi-door-closed-lock" width="24" height="24" viewBox="0 0 24 24"><path d="M16 11H18V13H16V11M12 3H19A2 2 0 0 1 21 5V19H22V21H2V19H10V5A2 2 0 0 1 12 3M12 5V19H19V5M6.2 5H2.8V4.5A1.7 1.7 0 0 1 6.2 4.5M7 5V4.5A2.5 2.5 0 0 0 2 4.5V5A1 1 0 0 0 1 6V10A1 1 0 0 0 2 11H7A1 1 0 0 0 8 10V6A1 1 0 0 0 7 5" /></svg>
